X:1
T:Heavenly Host, 87.87.887
T:Heavenly Host, 87.87.887
T:Swedish Melody, 1697
T:Public Domain Courtesy of the Cyber Hymnal™
C:Swedish Melody, 1697
Z:Public Domain
Z:Courtesy of the Cyber Hymnal™
%%score ( 1 2 ) ( 3 4 )
L:1/8
Q:1/4=110
M:none
K:F
V:1 treble 
V:2 treble 
V:3 bass 
V:4 bass 
V:1
 F2 | [FA]2 [FB]2 [Fc]2 [Fd]2 | [FB]2 [EB]2 [FA]2 [EG]2 | F2 [DF]2 [EB]2 [FA]2 | G4 [CF]2 F2 | %5
 [FA]2 [FB]2 [Fc]2 [Fd]2 | [FB]2 [EB]2 [FA]2 [EG]2 | F2 [DF]2 [EB]2 [FA]2 | G4 [CF]2 [FA]2 | %9
 [Gc]2 [FA]2 F2 [FA]2 | [EG]2 [DF]2 [^CE]2 E2 | [DF]2 [CG]2 [CA]2 [=B,D]2 | [CE]2 [=B,D]2 C2 C2 | %13
 [DF]2 [EG]2 [FA]2 [FB]2 | G4 [CF]2 |] %15
V:2
 F2 | x8 | x8 | F2 x6 | (F2 E2 F2) x2 | x8 | x8 | F2 x6 | F2 E2 x4 | x4 F2 x2 | x6 E2 | x8 | %12
 x4 C2 C2 | x8 | (F2 E2) x2 |] %15
V:3
 [F,A,]2 | [F,C]2 [D,D]2 [A,,C]2 [B,,B,]2 | [G,,D]2 [C,C]2 [F,C]2 [C,C]2 | %3
 [D,A,]2 [B,,B,]2 [G,,B,]2 [F,,C]2 | ([C,C]4 [F,A,]2) [F,A,]2 | [F,C]2 [D,D]2 [A,,C]2 [B,,B,]2 | %6
 [G,,D]2 [C,C]2 [F,C]2 [C,C]2 | [D,A,]2 [B,,B,]2 [G,,B,]2 [F,,C]2 | ([C,C]4 [F,A,]2) [F,C]2 | %9
 [E,C]2 [F,C]2 [B,,D]2 [F,,C]2 | [C,C]2 [D,A,]2 [A,,A,]2 [^C,A,]2 | [D,A,]2 [E,C]2 [F,A,]2 G,2 | %12
 [C,G,]2 [G,,G,]2 [C,E,]2 [E,G,]2 | [D,A,]2 [C,C]2 [F,C]2 [D,B,]2 | ([B,,D]2 [C,C]2) [F,A,]2 |] %15
V:4
 x2 | x8 | x8 | x8 | x8 | x8 | x8 | x8 | x8 | x8 | x8 | x6 G,2 | x8 | x8 | x6 |] %15

